public/tools-icons/npm.svg

<svg xmlns="http://www.w3.org/2000/svg" width="24" height="24" fill="none" viewBox="0 0 24 24"><g clip-path="url(#a)"><path fill="#c8c2ff" d="M1.763 0C.786 0 0 .786 0 1.763v20.474C0 23.214.786 24 1.763 24h20.474c.977 0 1.763-.786 1.763-1.763V1.763C24 .786 23.214 0 22.237 0zM5.13 5.323l13.837.019-.009 13.836h-3.464l.01-10.382h-3.456L12.04 19.17H5.113z"/></g><defs><clipPath id="a"><path fill="#fff" d="M0 0h24v24H0z"/></clipPath></defs></svg>

<svg xmlns="http://www.w3.org/2000/svg" width="24" height="24" fill="none"><g clip-path="url(#clip0_140_94)"><path fill="#c8c2ff" d="M1.763 0C0.786 0 0 0.786 0 1.763V22.237C0 23.214 0.786 24 1.763 24H22.237C23.214 24 24 23.214 24 22.237V1.763C24 0.786 23.214 0 22.237 0H1.763ZM5.13 5.323L18.967 5.342L18.958 19.178H15.494L15.504 8.796H12.048L12.04 19.17H5.113L5.13 5.323Z"/></g><defs><clipPath id="clip0_140_94"><path fill="#fff" d="M0 0H24V24H0z"/></clipPath></defs></svg>
